X:1
T:John Rally
M:6/8
L:1/4
K:G
 E/2| E F/2 G A/2| B- c/2 d B/2| A G/2E/2 E| E3/2- E B/2| d d/2 e d/2|\
 c- B/2 A D/2| G G/2 B B/2| d3/2- d d/2| d d/2 e d/2| c B/2 A D/2|\
 G G/2 B G/2| d3/2- d D/2| G A/2 G E/2| D/2 d c A/2| G E/2D/2 D| D3/2- D||\
